dist/assets/img/icons/li_phone.svg

<svg width="20" height="20" viewBox="0 0 20 20" fill="none" xmlns="http://www.w3.org/2000/svg">
<g clip-path="url(#clip0_2919_1603)">
<path d="M16.575 19.108C16.5 19.108 16.425 19.108 16.3416 19.0997C13.65 18.808 11.0333 17.8747 8.77498 16.408C6.67498 15.0747 4.85832 13.258 3.52498 11.158C2.05832 8.89134 1.12498 6.26634 0.841649 3.57467C0.808315 3.21634 0.849982 2.87467 0.958315 2.54134C1.06665 2.20801 1.24998 1.90801 1.48332 1.64967C1.71665 1.39134 1.99998 1.19134 2.31665 1.04967C2.64165 0.908008 2.98332 0.833008 3.33332 0.833008H5.83332C6.41665 0.833008 7.01665 1.04134 7.48332 1.44134C7.94165 1.83301 8.24165 2.38301 8.32498 2.98301C8.42498 3.72467 8.60832 4.45801 8.86665 5.14967C9.03332 5.59967 9.07498 6.08301 8.96665 6.54967C8.86665 7.01634 8.63332 7.44967 8.29998 7.78301L7.69998 8.38301C8.68332 9.91634 9.98332 11.2247 11.525 12.208L12.125 11.608C12.4666 11.2663 12.9 11.033 13.3666 10.9413C13.8333 10.8413 14.3166 10.8747 14.7666 11.0413C15.4583 11.2997 16.1916 11.483 16.925 11.583C17.5416 11.6663 18.0916 11.9747 18.4916 12.4413C18.8833 12.908 19.1 13.4997 19.0833 14.108V16.5997C19.0833 16.9497 19.0166 17.283 18.875 17.608C18.7333 17.9247 18.525 18.2163 18.275 18.4497C18.0166 18.683 17.7166 18.8663 17.3833 18.9747C17.1166 19.0663 16.85 19.108 16.575 19.108ZM5.84998 2.49967H5.84165H3.33332C3.21665 2.49967 3.10832 2.52467 2.99998 2.57467C2.89165 2.61634 2.79165 2.68301 2.71665 2.76634C2.63332 2.84967 2.57498 2.94967 2.54165 3.06634C2.50832 3.17467 2.49165 3.29134 2.49998 3.40801C2.75832 5.83301 3.59998 8.19967 4.92498 10.258C6.13332 12.158 7.77498 13.7997 9.67498 15.008C11.725 16.3413 14.0916 17.1747 16.5083 17.4413C16.6083 17.4497 16.725 17.433 16.8333 17.3997C16.9416 17.3663 17.0416 17.2997 17.1333 17.2247C17.225 17.1497 17.2916 17.0497 17.3333 16.9413C17.3833 16.833 17.4 16.7163 17.4 16.5997V14.0997C17.4 14.0913 17.4 14.083 17.4 14.083C17.4083 13.8747 17.3333 13.683 17.2 13.5247C17.0666 13.3663 16.8833 13.2663 16.6833 13.2413C15.8333 13.133 14.9833 12.9163 14.1666 12.6163C14.0166 12.558 13.85 12.5497 13.7 12.583C13.5416 12.6163 13.4 12.6913 13.2833 12.808L12.2333 13.8663C11.9666 14.133 11.5583 14.183 11.2333 13.9997C9.01665 12.7413 7.18332 10.8997 5.91665 8.69134C5.74165 8.34134 5.79165 7.93301 6.05832 7.66634L7.11665 6.60801C7.22498 6.49967 7.29998 6.35801 7.33332 6.19967C7.36665 6.04134 7.35832 5.88301 7.29998 5.73301C6.99165 4.91634 6.78332 4.06634 6.66665 3.20801C6.64165 3.01634 6.54165 2.83301 6.39165 2.69967C6.24165 2.57467 6.04998 2.49967 5.84998 2.49967Z" fill="black"/>
</g>
<defs>
<clipPath id="clip0_2919_1603">
<rect width="20" height="20" fill="white"/>
</clipPath>
</defs>
</svg>

<svg width="20" height="20" fill="none" xmlns="http://www.w3.org/2000/svg"><g clip-path="url(#clip0_2919_1603)"><path d="M16.575 19.108c-.075 0-.15 0-.233-.008a17.403 17.403 0 01-7.567-2.692 17.15 17.15 0 01-5.25-5.25A17.39 17.39 0 01.842 3.575a2.476 2.476 0 01.642-1.925c.233-.259.516-.459.833-.6A2.532 2.532 0 013.333.833h2.5c.584 0 1.184.208 1.65.608.459.392.759.942.842 1.542.1.742.283 1.475.542 2.167.166.45.208.933.1 1.4-.1.466-.334.9-.667 1.233l-.6.6a12.592 12.592 0 003.825 3.825l.6-.6a2.422 2.422 0 011.242-.667c.466-.1.95-.066 1.4.1a10.11 10.11 0 002.158.542 2.499 2.499 0 012.158 2.525V16.6c0 .35-.066.683-.208 1.008-.142.317-.35.608-.6.842a2.478 2.478 0 01-.892.525 2.456 2.456 0 01-.808.133zM5.85 2.5H3.333A.778.778 0 003 2.575a.743.743 0 00-.283.191.681.681 0 00-.175.3.94.94 0 00-.042.342 15.817 15.817 0 002.425 6.85 15.56 15.56 0 004.75 4.75 15.761 15.761 0 006.833 2.433c.1.009.217-.008.325-.041a.916.916 0 00.3-.175.678.678 0 00.2-.284.807.807 0 00.067-.341v-2.517a.809.809 0 00-.2-.558.805.805 0 00-.517-.284c-.85-.108-1.7-.325-2.516-.625a.815.815 0 00-.467-.033.82.82 0 00-.417.225l-1.05 1.058a.833.833 0 01-1 .134 14.257 14.257 0 01-5.316-5.31c-.175-.35-.125-.758.141-1.025l1.059-1.058a.81.81 0 00.216-.408.81.81 0 00-.033-.467 11.56 11.56 0 01-.633-2.525.834.834 0 00-.275-.508.851.851 0 00-.542-.2z" fill="#000"/></g><defs><clipPath id="clip0_2919_1603"><path fill="#fff" d="M0 0h20v20H0z"/></clipPath></defs></svg>
